communes/5639.svg

<?xml version="1.0" encoding="UTF-8"?>
<svg version="1.0" viewBox="0 0 603 763" xmlns="http://www.w3.org/2000/svg" xmlns:cc="http://creativecommons.org/ns#" xmlns:dc="http://purl.org/dc/elements/1.1/" xmlns:rdf="http://www.w3.org/1999/02/22-rdf-syntax-ns#" xmlns:xlink="http://www.w3.org/1999/xlink">
<metadata>
<rdf:RDF>
<cc:Work rdf:about="">
<dc:format>image/svg+xml</dc:format>
<dc:type rdf:resource="http://purl.org/dc/dcmitype/StillImage"/>
<dc:date>07-AUG-2006</dc:date>
<dc:creator>
<cc:Agent>
<dc:title>Jérôme BLUM (wagner51)</dc:title>
</cc:Agent>
</dc:creator>
<cc:license rdf:resource="http://creativecommons.org/licenses/GPL/2.0/"/>
<dc:coverage/>
<dc:description>Gabarit pour le Projet:Blasons de WIkipédia</dc:description>
<dc:subject>
<rdf:Bag>
<rdf:li>blason suisse modèle gabarit projet blasons</rdf:li>
</rdf:Bag>
</dc:subject>
<dc:language>fr</dc:language>
<dc:title>Gabrit d'un blason suisse</dc:title>
</cc:Work>
<cc:License rdf:about="http://creativecommons.org/licenses/GPL/2.0/">
<cc:permits rdf:resource="http://web.resource.org/cc/Reproduction"/>
<cc:permits rdf:resource="http://web.resource.org/cc/Distribution"/>
<cc:requires rdf:resource="http://web.resource.org/cc/Notice"/>
<cc:permits rdf:resource="http://web.resource.org/cc/DerivativeWorks"/>
<cc:requires rdf:resource="http://web.resource.org/cc/ShareAlike"/>
<cc:requires rdf:resource="http://web.resource.org/cc/SourceCode"/>
</cc:License>
</rdf:RDF>
</metadata>
<defs>
<radialGradient id="a" cx="858.04" cy="579.93" r="300" gradientTransform="matrix(1.215 1.5316e-24 1.4647e-23 1.2667 -839.19 -490.49)" gradientUnits="userSpaceOnUse">
<stop stop-color="#fff" stop-opacity=".31373" offset="0"/>
<stop stop-color="#fff" stop-opacity=".25098" offset=".19"/>
<stop stop-color="#6b6b6b" stop-opacity=".12549" offset=".6"/>
<stop stop-opacity=".12549" offset="1"/>
</radialGradient>
</defs>
<desc>Coat of Arms of Canton of Freiburg (Fribourg)</desc>
<g>
<path d="m1.5 1.5v458.87c0 166.31 134.31 301.13 300 301.13 165.69 0 300-134.82 300-301.13v-458.87h-600z" fill="#2b5df2"/>
<path d="m1.5 126.83 514.83 543.7c42.941-44.225 72.449-101.64 81.9-165.63l-476.73-503.4h-120v125.33z" fill="#fcef3c"/>
<path d="m598.23 504.9-476.73-503.4" fill="none" stroke="#000" stroke-width="3"/>
<path d="m1.5 126.83 514.83 543.7" fill="none" stroke="#000" stroke-width="3"/>
<path d="m563.28 139.62c-2.761-2.763-6.421-4.288-10.316-4.348v-0.634c0-8.229-6.695-14.926-14.926-14.926-8.229 0-14.924 6.696-14.924 14.926v3.018h-57.767v-57.768h3.018c8.229 0 14.924-6.695 14.924-14.925s-6.695-14.925-14.924-14.925h-0.635c-0.131-8.119-6.752-14.689-14.902-14.689-8.149 0-14.771 6.571-14.901 14.689h-0.634c-8.23 0-14.928 6.696-14.928 14.925s6.697 14.925 14.928 14.925h3.019v57.768h-57.771v-3.018c0-8.229-6.694-14.926-14.923-14.926-8.231 0-14.927 6.696-14.927 14.926v0.636c-8.119 0.129-14.689 6.752-14.689 14.901s6.57 14.772 14.689 14.902v0.634c0 8.229 6.695 14.925 14.927 14.925 8.229 0 14.923-6.696 14.923-14.925v-3.017h57.771v57.768h-3.021c-3.986 0-7.735 1.552-10.555 4.371s-4.371 6.567-4.371 10.554c0 8.229 6.695 14.924 14.926 14.924h0.635c0.129 8.118 6.752 14.689 14.9 14.689 8.149 0 14.772-6.571 14.901-14.689h0.637c8.229 0 14.925-6.695 14.925-14.924 0-3.988-1.556-7.737-4.373-10.554-2.821-2.817-6.568-4.371-10.555-4.371h-3.017v-57.768h57.767v3.017c0 8.229 6.695 14.925 14.927 14.925 8.229 0 14.923-6.696 14.923-14.925v-0.634c8.119-0.13 14.689-6.753 14.689-14.902v-2e-3c0-3.988-1.551-7.735-4.37-10.553z" fill="#fff" stroke="#000" stroke-linecap="round" stroke-width="3"/>
</g>
<g>
<path d="m1.5 1.5v458.87c0 166.31 134.31 301.13 300 301.13 165.69 0 300-134.82 300-301.13v-458.87h-600z" fill="url(#a)"/>
<path d="m1.5 1.5v458.87c0 166.31 134.31 301.13 300 301.13 165.69 0 300-134.82 300-301.13v-458.87h-600z" fill="none" stroke="#000" stroke-width="3"/>
</g>
</svg>

<?xml version="1.0" encoding="UTF-8" standalone="no"?>
<svg
   xmlns:dc="http://purl.org/dc/elements/1.1/"
   xmlns:cc="http://creativecommons.org/ns#"
   xmlns:rdf="http://www.w3.org/1999/02/22-rdf-syntax-ns#"
   xmlns:svg="http://www.w3.org/2000/svg"
   xmlns="http://www.w3.org/2000/svg"
   xmlns:xlink="http://www.w3.org/1999/xlink"
   xmlns:sodipodi="http://sodipodi.sourceforge.net/DTD/sodipodi-0.dtd"
   xmlns:inkscape="http://www.inkscape.org/namespaces/inkscape"
   height="763"
   width="603"
   version="1.0"
   id="svg20"
   sodipodi:version="0.32"
   inkscape:version="0.46"
   sodipodi:docname="Lully-coat_of_arms.svg"
   sodipodi:docbase="C:\Documents and Settings\Steve\Bureau\Blason Villages Suisse pour Wikipédia (par Delta-9)"
   inkscape:output_extension="org.inkscape.output.svg.inkscape">
  <metadata
     id="metadata31">
    <rdf:RDF>
      <cc:Work
         rdf:about="">
        <dc:format>image/svg+xml</dc:format>
        <dc:type
           rdf:resource="http://purl.org/dc/dcmitype/StillImage" />
        <dc:date>07-AUG-2006</dc:date>
        <dc:creator>
          <cc:Agent>
            <dc:title>Jérôme BLUM (wagner51)</dc:title>
          </cc:Agent>
        </dc:creator>
        <cc:license
           rdf:resource="http://creativecommons.org/licenses/GPL/2.0/" />
        <dc:coverage />
        <dc:description>Gabarit pour le Projet:Blasons de WIkipédia</dc:description>
        <dc:subject>
          <rdf:Bag>
            <rdf:li>blason suisse modèle gabarit projet blasons</rdf:li>
          </rdf:Bag>
        </dc:subject>
        <dc:language>fr</dc:language>
        <dc:title>Gabrit d'un blason suisse</dc:title>
      </cc:Work>
      <cc:License
         rdf:about="http://creativecommons.org/licenses/GPL/2.0/">
        <cc:permits
           rdf:resource="http://web.resource.org/cc/Reproduction" />
        <cc:permits
           rdf:resource="http://web.resource.org/cc/Distribution" />
        <cc:requires
           rdf:resource="http://web.resource.org/cc/Notice" />
        <cc:permits
           rdf:resource="http://web.resource.org/cc/DerivativeWorks" />
        <cc:requires
           rdf:resource="http://web.resource.org/cc/ShareAlike" />
        <cc:requires
           rdf:resource="http://web.resource.org/cc/SourceCode" />
      </cc:License>
    </rdf:RDF>
  </metadata>
  <defs
     id="defs29"><inkscape:perspective
   sodipodi:type="inkscape:persp3d"
   inkscape:vp_x="0 : 381.5 : 1"
   inkscape:vp_y="0 : 1000 : 0"
   inkscape:vp_z="603 : 381.5 : 1"
   inkscape:persp3d-origin="301.5 : 254.33333 : 1"
   id="perspective28" />
<linearGradient
   id="linearGradient2893">
  <stop
     style="stop-color:#ffffff;stop-opacity:0.3137255;"
     offset="0"
     id="stop2895" />
  <stop
     id="stop2897"
     offset="0.19"
     style="stop-color:#ffffff;stop-opacity:0.25098041;" />
  <stop
     style="stop-color:#6b6b6b;stop-opacity:0.1254902;"
     offset="0.60000002"
     id="stop2901" />
  <stop
     style="stop-color:#000000;stop-opacity:0.1254902;"
     offset="1"
     id="stop2899" />
</linearGradient>
<linearGradient
   id="linearGradient2955">
  <stop
     style="stop-color:white;stop-opacity:0;"
     offset="0"
     id="stop2965" />
  <stop
     style="stop-color:black;stop-opacity:0.64583331;"
     offset="1"
     id="stop2959" />
</linearGradient>
<radialGradient
   inkscape:collect="always"
   xlink:href="#linearGradient2893"
   id="radialGradient3236"
   gradientUnits="userSpaceOnUse"
   gradientTransform="matrix(1.215027,1.531577e-24,1.464684e-23,1.266667,-839.1924,-490.4894)"
   cx="858.04236"
   cy="579.93323"
   fx="858.04236"
   fy="579.93323"
   r="300" />
<inkscape:perspective
   id="perspective2557"
   inkscape:persp3d-origin="297.63751 : 280.63 : 1"
   inkscape:vp_z="595.27502 : 420.94501 : 1"
   inkscape:vp_y="0 : 1000 : 0"
   inkscape:vp_x="0 : 420.94501 : 1"
   sodipodi:type="inkscape:persp3d" />

	
	
	
	

	
</defs>
  <sodipodi:namedview
     inkscape:window-height="968"
     inkscape:window-width="1280"
     inkscape:pageshadow="2"
     inkscape:pageopacity="0.0"
     guidetolerance="10.0"
     gridtolerance="10.0"
     objecttolerance="10.0"
     borderopacity="1.0"
     bordercolor="#666666"
     pagecolor="#ffffff"
     id="base"
     inkscape:zoom="0.86484756"
     inkscape:cx="313.42609"
     inkscape:cy="394.68471"
     inkscape:window-x="1280"
     inkscape:window-y="22"
     inkscape:current-layer="layer2"
     showgrid="false"
     showguides="true"
     inkscape:guide-bbox="true">
    <sodipodi:guide
       orientation="horizontal"
       position="761.5"
       id="guide1885" />
    <sodipodi:guide
       orientation="vertical"
       position="1.5"
       id="guide1887" />
    <sodipodi:guide
       orientation="horizontal"
       position="1.5"
       id="guide1889" />
    <sodipodi:guide
       orientation="vertical"
       position="601.5"
       id="guide1891" />
    <sodipodi:guide
       orientation="vertical"
       position="301.50081"
       id="guide1893" />
  </sodipodi:namedview>
  <desc
     id="desc22">Coat of Arms of Canton of Freiburg (Fribourg)</desc>
  <g
     inkscape:groupmode="layer"
     id="layer1"
     inkscape:label="Fond écu"
     style="opacity:1;display:inline"
     sodipodi:insensitive="true">
    <path
       id="path1899"
       d="M 1.5,1.49998 L 1.5,460.3679 C 1.5,626.6785 135.81456,761.5 301.49999,761.5 C 467.18543,761.5 601.5,626.6785 601.5,460.3679 L 601.5,1.49998 L 1.5,1.49998 z"
       style="fill:#2b5df2;fill-opacity:1" />
  </g>
  <g
     inkscape:groupmode="layer"
     id="layer2"
     inkscape:label="Meubles"
     style="opacity:1;display:inline"
     sodipodi:insensitive="true">
    <path
       d="M 1.5,126.832 L 516.328,670.531 C 559.269,626.306 588.777,568.888 598.228,504.902 L 121.5,1.5 L 1.5,1.5 L 1.5,126.832 L 1.5,126.832 z"
       id="path2489"
       style="fill:#fcef3c" />
    <path
       d="M 598.228,504.902 L 121.5,1.5"
       id="path2489_4_"
       style="fill:none;stroke:#000000;stroke-width:3" />
    <path
       d="M 1.5,126.832 L 1.5,126.832 L 516.328,670.531"
       id="path2489_3_"
       style="fill:none;stroke:#000000;stroke-width:3" />
    <path
       d="M 563.285,139.616 C 560.524,136.853 556.864,135.328 552.969,135.268 C 552.969,134.99 552.969,134.634 552.969,134.634 C 552.969,126.405 546.274,119.708 538.043,119.708 C 529.814,119.708 523.119,126.404 523.119,134.634 C 523.119,134.634 523.119,136.368 523.119,137.652 L 465.352,137.652 L 465.352,79.884 C 466.634,79.884 468.37,79.884 468.37,79.884 C 476.599,79.884 483.294,73.189 483.294,64.959 C 483.294,56.729 476.599,50.034 468.37,50.034 C 468.37,50.034 468.013,50.034 467.735,50.034 C 467.604,41.915 460.983,35.345 452.833,35.345 C 444.684,35.345 438.062,41.916 437.932,50.034 C 437.654,50.034 437.298,50.034 437.298,50.034 C 429.068,50.034 422.37,56.73 422.37,64.959 C 422.37,73.188 429.067,79.884 437.298,79.884 C 437.298,79.884 439.03,79.884 440.317,79.884 L 440.317,137.652 L 382.546,137.652 C 382.546,136.368 382.546,134.634 382.546,134.634 C 382.546,126.405 375.852,119.708 367.623,119.708 C 359.392,119.708 352.696,126.404 352.696,134.634 C 352.696,134.634 352.696,134.99 352.696,135.27 C 344.577,135.399 338.007,142.022 338.007,150.171 C 338.007,158.32 344.577,164.943 352.696,165.073 C 352.696,165.351 352.696,165.707 352.696,165.707 C 352.696,173.936 359.391,180.632 367.623,180.632 C 375.852,180.632 382.546,173.936 382.546,165.707 C 382.546,165.707 382.546,163.974 382.546,162.69 L 440.317,162.69 L 440.317,220.458 C 439.031,220.458 437.296,220.458 437.296,220.458 C 433.31,220.458 429.561,222.01 426.741,224.829 C 423.921,227.648 422.37,231.396 422.37,235.383 C 422.37,243.612 429.065,250.307 437.296,250.307 C 437.296,250.307 437.652,250.307 437.931,250.307 C 438.06,258.425 444.683,264.996 452.831,264.996 C 460.98,264.996 467.603,258.425 467.732,250.307 C 468.012,250.307 468.369,250.307 468.369,250.307 C 476.598,250.307 483.294,243.612 483.294,235.383 C 483.294,231.395 481.738,227.646 478.921,224.829 C 476.1,222.012 472.353,220.458 468.366,220.458 C 468.366,220.458 466.633,220.458 465.349,220.458 L 465.349,162.69 L 523.116,162.69 C 523.116,163.974 523.116,165.707 523.116,165.707 C 523.116,173.936 529.811,180.632 538.043,180.632 C 546.272,180.632 552.966,173.936 552.966,165.707 C 552.966,165.707 552.966,165.351 552.966,165.073 C 561.085,164.943 567.655,158.32 567.655,150.171 L 567.655,150.169 C 567.655,146.181 566.104,142.434 563.285,139.616 z"
       id="path2467"
       style="fill:#ffffff;stroke:#000000;stroke-width:3;stroke-linecap:round" />
  </g>
  <g
     inkscape:groupmode="layer"
     id="layer3"
     inkscape:label="Reflet final"
     style="display:inline"
     sodipodi:insensitive="true">
    <path
       style="fill:url(#radialGradient3236);fill-opacity:1"
       d="M 1.5,1.5 L 1.5,460.3679 C 1.5,626.67854 135.81454,761.5 301.49993,761.5 C 467.1854,761.5 601.5,626.67854 601.5,460.3679 L 601.5,1.5 L 1.5,1.5 z "
       id="path2346" />
  </g>
  <g
     inkscape:groupmode="layer"
     id="layer4"
     inkscape:label="Contour final"
     style="display:inline"
     sodipodi:insensitive="true">
    <path
       style="fill:none;fill-opacity:1;stroke:#000000;stroke-width:3;stroke-miterlimit:4;stroke-dasharray:none;stroke-opacity:1"
       d="M 1.5,1.5 L 1.5,460.36794 C 1.5,626.67854 135.81454,761.5 301.49993,761.5 C 467.1854,761.5 601.5,626.67854 601.5,460.36794 L 601.5,1.5 L 1.5,1.5 z "
       id="path3239" />
  </g>
</svg>
